X: 20361
M: 6/8
L: 1/8
K: D
V: 1 staves=2
|:\
|:\
|:\
dAF DFA | dfe def | gdB GBd | gba gfe |\
dAF DFA | dfe def | gba gfe | ddd d3 :|
V: 2
|:\
|:\
|:\


